X: 17
T: Sukkula polkka
C: Konsta Jylh\"a
R: polka
O: Finland
B:
D:
Z: 1998 by John Chambers <jc@trillian.mit.edu>
N:
M: 2/4
L: 1/16
K: F
|: "F"{cd}c2Ac f2AB | "Gm"c2BA BAG2 |1,3 "C7"{ga}g2eg c'2e2 | "F"g2f2 agf2 \
                                   :|2,4 "C7"g2eg c'2eg | "F"g2f2 f4 :|
|: "F"AccA "Bb"BddB | "F"ABcf faaf |1,3 "C7"gbbg eceg | "F"gfag "C7"fedc \
                                  :|2,4 "C7"gbbg eceg | ~g2f2 "F"f4  :| [K:Bb]
|: "Bb"f2bf d2fd | B2dB F2B2 |1,3 "F7"ABcd efg2 | fecA F2F2 \
                            :|2,4 "F7"ABce g2Ac | "Bb"B2d2 B4 :|
%%sep 1 1 10cm
